src/assets/icons/letters,simple,sans-s.svg

<svg width="48" height="48" viewBox="0 0 48 48" fill="none" xmlns="http://www.w3.org/2000/svg">
<rect opacity="0.2" x="5" y="5" width="38" height="38" rx="4" fill="black"/>
<path d="M28.0332 19.9386H32.6018C32.5357 15.9205 29.2332 13.1463 24.2133 13.1463C19.2705 13.1463 15.6487 15.8764 15.6707 19.9716C15.6597 23.2962 18.0045 25.2006 21.8134 26.1143L24.2683 26.7308C26.7232 27.3253 28.0883 28.0298 28.0993 29.549C28.0883 31.2003 26.5251 32.3232 24.1032 32.3232C21.6263 32.3232 19.8429 31.1783 19.6888 28.9215H15.0762C15.1973 33.7983 18.687 36.3192 24.1582 36.3192C29.6625 36.3192 32.899 33.6882 32.91 29.56C32.899 25.8061 30.0698 23.8136 26.1508 22.9329L24.1252 22.4485C22.1657 21.9972 20.5254 21.2706 20.5585 19.6523C20.5585 18.1992 21.8465 17.1314 24.1803 17.1314C26.459 17.1314 27.8571 18.1662 28.0332 19.9386Z" fill="black"/>
</svg>

<svg xmlns="http://www.w3.org/2000/svg" width="48" height="48" fill="none" viewBox="0 0 48 48">
  <rect width="38" height="38" x="5" y="5" fill="#000" opacity=".2" rx="4"/>
  <path fill="#000" d="M28.033 19.939h4.569c-.066-4.018-3.369-6.793-8.389-6.793-4.943 0-8.564 2.73-8.542 6.826-.011 3.324 2.334 5.229 6.142 6.142l2.455.617c2.455.594 3.82 1.299 3.831 2.818-.01 1.651-1.574 2.774-3.996 2.774-2.477 0-4.26-1.145-4.414-3.401h-4.613c.121 4.876 3.611 7.397 9.082 7.397 5.505 0 8.741-2.63 8.752-6.759-.011-3.754-2.84-5.746-6.76-6.627l-2.025-.485c-1.96-.45-3.6-1.177-3.567-2.796 0-1.453 1.288-2.52 3.622-2.52 2.279 0 3.677 1.034 3.853 2.807z"/>
</svg>
